Numix-GalliumOS/48/categories/applications-libraries.svg

<?xml version="1.0" encoding="UTF-8" standalone="no"?>
<svg
   xmlns:dc="http://purl.org/dc/elements/1.1/"
   xmlns:cc="http://creativecommons.org/ns#"
   xmlns:rdf="http://www.w3.org/1999/02/22-rdf-syntax-ns#"
   xmlns:svg="http://www.w3.org/2000/svg"
   xmlns="http://www.w3.org/2000/svg"
   xmlns:sodipodi="http://sodipodi.sourceforge.net/DTD/sodipodi-0.dtd"
   xmlns:inkscape="http://www.inkscape.org/namespaces/inkscape"
   width="48"
   height="48"
   viewBox="0 0 38.4 38.4"
   id="svg2"
   version="1.1"
   inkscape:version="0.91 r"
   sodipodi:docname="applications-libraries.svg">
  <metadata
     id="metadata16">
    <rdf:RDF>
      <cc:Work
         rdf:about="">
        <dc:format>image/svg+xml</dc:format>
        <dc:type
           rdf:resource="http://purl.org/dc/dcmitype/StillImage" />
        <dc:title />
      </cc:Work>
    </rdf:RDF>
  </metadata>
  <defs
     id="defs14" />
  <sodipodi:namedview
     pagecolor="#ffffff"
     bordercolor="#666666"
     borderopacity="1"
     objecttolerance="10"
     gridtolerance="10"
     guidetolerance="10"
     inkscape:pageopacity="0"
     inkscape:pageshadow="2"
     inkscape:window-width="1680"
     inkscape:window-height="1026"
     id="namedview12"
     showgrid="true"
     inkscape:zoom="9.9368421"
     inkscape:cx="31.383406"
     inkscape:cy="23.880173"
     inkscape:window-x="0"
     inkscape:window-y="24"
     inkscape:window-maximized="1"
     inkscape:current-layer="svg2">
    <inkscape:grid
       type="xygrid"
       id="grid4144" />
  </sodipodi:namedview>
  <path
     style="fill:#b2a546"
     d="M 5.04375,4 C 4.4640997,4 4,4.4490063 4,5.009375 l 0,28.38125 C 4,33.950994 4.4640997,34.4 5.04375,34.4 l 5.907812,0 C 11.535326,34.4 12,33.950994 12,33.390625 L 12,5.009375 C 12,4.4490063 11.535326,4 10.951562,4 L 5.04375,4 Z M 5.6,5.6 l 4.8,0 0,12.8 -4.8,0 0,-12.8 z M 8,24.8 a 2,2 0 0 1 2,2 2,2 0 0 1 -2,2 2,2 0 0 1 -2,-2 2,2 0 0 1 2,-2 z"
     id="path6"
     inkscape:connector-curvature="0" />
  <path
     style="fill:#b2a546"
     d="M 14.570313,4 C 14.032071,4 13.6,4.4490063 13.6,5.009375 l 0,28.38125 C 13.6,33.950994 14.032071,34.4 14.570313,34.4 l 3.656249,0 C 18.768622,34.4 19.2,33.950994 19.2,33.390625 l 0,-28.38125 C 19.2,4.4490063 18.768622,4 18.226562,4 Z M 15.2,5.6 l 2.4,0 0,12.8 -2.4,0 z m 1.2,19.6 c 0.883656,0 1.6,0.716344 1.6,1.6 0,0.883656 -0.716344,1.6 -1.6,1.6 -0.883656,0 -1.6,-0.716344 -1.6,-1.6 0,-0.883656 0.716344,-1.6 1.6,-1.6 z"
     id="path8"
     inkscape:connector-curvature="0"
     sodipodi:nodetypes="ssssssssscccccsssss" />
  <path
     style="fill:#b2a546"
     d="M 21.649036,5.1195818 C 21.05485,5.2781089 20.695162,5.8369299 20.840199,6.3758891 l 7.345762,27.2969129 c 0.145037,0.53896 0.737151,0.843843 1.331337,0.685314 l 4.037354,-1.077147 c 0.598399,-0.159652 0.9584,-0.718556 0.813363,-1.257516 L 27.022253,4.7265328 C 26.877217,4.1875735 26.284786,3.8827751 25.686387,4.0424266 Z m 0.889438,1.4116112 3.091304,-0.8238606 3.312947,12.3109626 -3.091303,0.82386 z m 6.515048,18.054522 c 1.066956,-0.284648 2.163649,0.345795 2.449539,1.408162 0.285902,1.062365 -0.347288,2.154351 -1.414241,2.439012 -1.066959,0.284649 -2.163652,-0.345795 -2.449542,-1.408164 -0.285902,-1.062364 0.34729,-2.15435 1.414244,-2.43901 z"
     id="path8-9"
     inkscape:connector-curvature="0"
     sodipodi:nodetypes="ssssssssscccccsssss" />
</svg>

<svg xmlns="http://www.w3.org/2000/svg" width="48" height="48" viewBox="0 0 38.4 38.4">
 <path d="m 5.04 4 c -0.58 0 -1.044 0.449 -1.044 1.01 l 0 28.381 c 0 0.56 0.464 1.01 1.044 1.01 l 5.908 0 c 0.584 0 1.048 -0.449 1.048 -1.01 l 0 -28.381 c 0 -0.56 -0.465 -1.01 -1.048 -1.01 l -5.908 0 m 0.556 1.6 l 4.8 0 0 12.8 -4.8 0 0 -12.8 z m 2.4 19.2 a 2 2 0 0 1 2 2 2 2 0 0 1 -2 2 2 2 0 0 1 -2 -2 2 2 0 0 1 2 -2 z" style="fill:#b2a546"/>
 <path d="m 14.57 4 c -0.538 0 -0.97 0.449 -0.97 1.01 l 0 28.381 c 0 0.56 0.432 1.01 0.97 1.01 l 3.656 0 c 0.542 0 0.973 -0.449 0.973 -1.01 l 0 -28.381 c 0 -0.56 -0.431 -1.01 -0.973 -1.01 m -3.03 1.6 l 2.4 0 0 12.8 -2.4 0 z m 1.2 19.6 c 0.884 0 1.6 0.716 1.6 1.6 0 0.884 -0.716 1.6 -1.6 1.6 -0.884 0 -1.6 -0.716 -1.6 -1.6 0 -0.884 0.716 -1.6 1.6 -1.6 z" style="fill:#b2a546"/>
 <path d="m 21.649 5.12 c -0.594 0.159 -0.954 0.717 -0.809 1.256 l 7.346 27.3 c 0.145 0.539 0.737 0.844 1.331 0.685 l 4.04 -1.077 c 0.598 -0.16 0.958 -0.719 0.813 -1.258 l -7.346 -27.3 c -0.145 -0.539 -0.737 -0.844 -1.336 -0.684 m -3.148 2.489 3.091 -0.824 3.313 12.311 -3.091 0.824 z m 6.515 18.05 c 1.067 -0.285 2.164 0.346 2.45 1.408 0.286 1.062 -0.347 2.154 -1.414 2.439 -1.067 0.285 -2.164 -0.346 -2.45 -1.408 -0.286 -1.062 0.347 -2.154 1.414 -2.439 z" style="fill:#b2a546"/>
</svg>
